X:1
T:Miraculous
T:Thomas Morley
T:Source : First book of canzonets to two voices---London---T.Este---1595. Editor : André Vierendeels (20/11/16).
T:Notes : Original clefs : G2, G2 Editorial accidentals above the staff
T:Miraculous
T:©
T:©
T:©
T:©
T:©
C:Thomas Morley
Z:©
%%score [ 1 2 ]
L:1/8
Q:1/4=92
M:4/4
K:F
V:1 treble nm="Soprano 1" snm="S 1"
V:2 treble nm="Soprano 2" snm="S 2"
V:1
 G4 B3 c | d4 z2 G2 | F2 E2 D2 d2- | d2 ^c2 d2 d2 | f3 e d4 | c2 dc BA B2 | A2 d2 f3 e | %7
w: Mi- ra- cu-|lous loves|woun- * ding, loves|_ woun- di,g, mi-|ra- cu- lous|loves woun- * * * *|ding, mi- ra- cu-|
 d2 A2 B2 c2 | d2 GA BG A2- | AG G4 ^F2 | G4 z2 G2 | B3 c d4 | z2 g4 f2 | e4 d4 | z2 D2 F3 G | %15
w: lous loves woun- *|||ding, mi-|ra- cu- lous|loves _|woun- ding,|mi- ra- cu-|
 A2 ^F2 G4 | D4 z2 d2 | f3 e d2 A2 | BABc d2 c2- | cB BA/G/ A4 | =B2 d2 c2 f2- | fe d2 ^c2 d2 | %22
w: lous loves woun-|ding, mi-|ra- cu- lous loves|woun- * * * * *||ding, even those darts|_ my sweet Phil- lis,|
 z2 B2 A2 B2- | BA G2 ^F2 G2 | d4 c2 A2 | BABc d2 d2- | d2 c2 f4 | e4 z2 d2- | d2 _e4 d2 | %29
w: even those darts|_ my sweet Phil- lis,|So fierc- ly|shot a- gainst my heart re-|* boun- *|ding, re-|* boun- *|
 c2 B2 c4 | B2 d2 B3 c | d4 G4 | z2 g4 g2 | f2 d2 f4 | e4 z2 d2- | d2 d2 c2 A2 | BAGA BABc | %37
w: |ding, are turnd to|ro- ses|vi- o-|lets and lil-|lies, vi-|* o- lets and|lil- * * * * * * *|
 d2 d2 A3 B | c2 GA BABc | d2 D4 d2 | c2 f2 e4 | d8 | z2 g2 d3 e | fede f2 d2- | d2 c4 B2 | %45
w: lies, with o- dour|sweet a- * * * * *|boun- ding, sweet|a- boun _|ding,|with o- dour|sweet _ _ _ _ a-|* boun- *|
 A2 G2 A4 | G4 z2 G2 | B3 c d4 | z2 g4 f2 | e4 d4 | z2 D2 F3 G | A2 ^F2 G4 | D4 z2 d2 | %53
w: |ding, mi-|ra- cu- lous|loves _|woun- ding,|mi- ra- cu-|lous loves woun-|ding, mi-|
 f3 e d2 A2 | BABc d2 c2- | BB BA/G/ A4 | =B2 G2 B3 c | d4 z2 G2 | F2 E2 D2 d2- | d2 ^c2 d2 d2 | %60
w: ra- cu- lous loves|woun- * * * * *||ding, mi- ra- cu-|lous loves|woun- * ding, loves|_ woun- ding, mi-|
 f3 e d4 | c2 dc BA B2 | A2 d2 f3 e | d2 A2 B2 c2 | d2 GA BG A2- | AG G4 ^F2 | G8 |] %67
w: ra- cu- lous|loves woun- * * * *|ding, mi- ra- cu-|lous loves woun- *|||ding.|
V:2
 z4 G4 | B3 c d4 | z2 g4 f2 | e4 d4 | z2 D2 F3 G | A2 ^F2 G4 | D4 z2 d2 | f3 e d2 A2 | %8
w: Mi-|ra- cu- lous|loves woun-|* ding,|mi- ra- cu-|lous loves woun-|ding, mi-|ra- cu- lous loves|
 BABc d2 c2- | cB BA/G/ A4 |"^b" =B2 G2 B3 c | d4 z2 G2 | F2 E2 D2 d2- | d2 ^c2 d2 d2 | f3 e d4 | %15
w: woun- * * * * *||ding, mi- ra- cu-|lous loves|woun- * ding, loves|_ woun- ding, mi-|ra- cu- lous|
 c2 dc BA B2 | A2 d2 f3 e | d2 A2 B2 c2 | d2 GA BG A2- | AG G4 ^F2 |"^b" G2 B2 A2 d2- | %21
w: loves woun- * * * *|ding, mi- ra- cu-|lous loves woun- *|||ding, evn those darts|
 dc f2 e2 d2 | z2 d2 c2 d2- | dc B2 A2 G2 | z2 D2 E2 ^F2 |"^-natural" GFGA B2 G2 | F2 E2 D2 d2- | %27
w: _ my sweet Phil- lis,|even those darts|_ my sweet Phil- lis,|so fierc- ly|shot a- gainst my heart re-|boun- * ding, re-|
 d2 ^c2 d2 B2- | B2 G3 A BG | A2 B4 A2 | B4 z2 d2 | B3 c d4 | G8 | z2 d4 d2 | c2 G2 B3 A | %35
w: * boun- ding, re-|* boun- * * *||ding, are|turnd to ro-|ses,|vi- o-|lets and lil- *|
 GA B2 A4 | z2 g4 g2 | f2 d2 f4 | e2 g2 d3 e | f3 e defd | e2 d4 ^c2 | d2 d2 G3 A | B2 GA BABc | %43
w: * * * lies,|are turnd|to ro- *|ses with o- dour|sweet a- * * * *|boun- * *|ding, with o- dour|sweet a- * * * * *|
 defe de f2 | e3 d ef g2 | ^f2 g4 f2 | g2 G2 B3 c | d4 z2 G2 | F2 E2 D2 d2- | d2 ^c2 d2 d2 | %50
w: ||boun- * *|ding, mi- ra- cu-|lous loves|woun- * ding, loves|_ woun- ding, mi-|
 f3 e d4 | c2 dc BA B2 | G2 d2 f3 e | d2 A2 B2 c2 | d2 GA BG A2- | AG G4 ^F2 | G4 z2 G2 | B3 c d4 | %58
w: ra- cu- lous|loves woun- * * * *|ding, mi- ra- cu-|lous loves woun- *|||ding, mi-|ra- cu- lous|
 z2 g4 f2 | e4 d4 | z2 D2 F3 G | A2 ^F2 G4 | D4 z2 d2 | f3 e d2 A2 | BABc d2 c2- | cB BA/G/ A4 | %66
w: loves _|woun- ding,|mi- ra- cu-|lous woun- *|ding, mi-|ra- cu- lous loves|woun- * * * * *||
 =B8 |] %67
w: ding.|

